images/portfolio__logo_image-4.svg

<svg width="262" height="54" viewBox="0 0 262 54" fill="none" xmlns="http://www.w3.org/2000/svg">
<path d="M78.5615 1.22346C78.4174 1.38552 78.3814 6.30124 78.3994 19.0857L78.4535 36.7139L81.6406 36.7679L84.8457 36.8039L84.8817 26.3603L84.9357 15.9166L96.0456 26.7204C102.168 32.6625 107.282 37.5242 107.426 37.5242C107.552 37.5242 107.732 37.3981 107.786 37.2361C107.84 37.074 107.894 30.2496 107.894 22.0748V7.18355L104.869 4.15849C103.212 2.50191 101.754 1.15144 101.628 1.15144C101.466 1.15144 101.412 3.47425 101.412 11.8832C101.412 18.2574 101.339 22.5789 101.249 22.5429C101.159 22.5069 96.1537 17.6992 90.1215 11.8652C84.1074 6.01314 79.0837 1.16944 78.9756 1.09742C78.8496 1.02539 78.6695 1.07941 78.5615 1.22346Z" fill="white"/>
<path d="M121.795 1.11534C121.615 1.24138 121.579 4.93268 121.615 18.9956L121.669 36.7138H124.82H127.971L128.061 26.3422L128.151 15.9525L139.225 26.7383C145.311 32.6624 150.443 37.5061 150.623 37.5061C150.911 37.5241 150.929 36.6778 150.929 22.2367V6.94938L147.94 4.05037C146.283 2.44781 144.861 1.16936 144.735 1.20537C144.591 1.25939 144.519 4.21242 144.447 11.9191L144.357 22.5608L133.229 11.7571C127.107 5.83299 122.083 0.971288 122.065 0.971288C122.047 0.971288 121.921 1.04331 121.795 1.11534Z" fill="white"/>
<path d="M178.641 1.25951C178.208 1.78169 160.31 36.5159 160.4 36.6599C160.454 36.7319 162.219 36.804 164.308 36.804H168.125L173.527 26.0002C176.498 20.0581 178.965 15.1964 179.019 15.1964C179.073 15.1964 181.54 20.0401 184.511 25.9642L189.913 36.7139L193.586 36.7679C195.62 36.7859 197.331 36.7499 197.421 36.6599C197.583 36.4978 179.397 1.20549 179.073 1.07944C178.965 1.02542 178.767 1.11546 178.641 1.25951Z" fill="white"/>
<path d="M23.6963 4.01432L20.6532 6.91334L20.5632 17.303C20.4732 27.3865 20.4552 27.7286 20.095 28.5209C19.6269 29.5293 18.4745 30.5916 17.5561 30.8617C17.124 30.9878 15.5935 31.0418 13.2526 31.0058L9.63337 30.9518L8.76907 30.4116C8.17486 30.0334 7.74271 29.5653 7.34657 28.881C6.80638 27.9087 6.78838 27.8547 6.73436 24.9737C6.68034 22.7769 6.59031 22.0386 6.42825 22.0386C6.30221 22.0386 4.80768 23.3531 3.09708 24.9557L0 27.8907L0.108038 28.899C0.468164 32.5903 3.07908 35.5614 6.78838 36.5337C8.31891 36.9298 18.9246 36.9298 20.4372 36.5337C23.4802 35.7414 25.785 33.6167 26.7934 30.6817C27.1175 29.7453 27.1355 28.935 27.1355 15.4843C27.1355 5.11271 27.0815 1.25936 26.9374 1.20534C26.8294 1.16932 25.3709 2.42977 23.6963 4.01432Z" fill="white"/>
<path d="M210.026 4.17653L206.928 7.18358L206.964 21.9488L207.018 36.7139L210.314 36.7679L213.591 36.804V18.9777C213.591 4.82476 213.537 1.15147 213.375 1.16948C213.249 1.16948 211.736 2.51995 210.026 4.17653Z" fill="white"/>
<path d="M41.0004 1.90774C40.9464 2.03378 40.9283 9.92054 40.9464 19.4279L41.0004 36.7139L52.2003 36.7679L63.4182 36.804L64.7507 34.121C65.4889 32.6445 66.0471 31.4021 65.9931 31.33C65.9211 31.276 61.7256 31.222 56.6298 31.222H47.3926V26.6304V22.0388L51.6781 22.0028L55.9456 21.9488L57.3321 19.2478C58.0884 17.7533 58.6646 16.4928 58.6105 16.4028C58.5745 16.3308 56.0356 16.2768 52.9566 16.2768H47.3926V11.8652V7.45368L55.3694 7.41767L63.3282 7.36365L64.7327 4.71672C65.5069 3.25821 66.1012 1.97976 66.0291 1.87172C65.8491 1.58362 41.1084 1.61964 41.0004 1.90774Z" fill="white"/>
<path d="M222.054 1.94375C222.054 2.06979 223.476 3.54631 225.241 5.2209L228.41 8.26396L233.02 8.35399C237.593 8.44403 237.629 8.44403 238.548 8.9302C239.718 9.54241 241.032 11.0009 241.393 12.0813C241.555 12.5495 241.681 13.4678 241.681 14.116C241.681 16.2588 240.438 18.1314 238.367 19.0858C237.485 19.4999 237.305 19.5179 232.84 19.5179C229.364 19.5179 228.176 19.5719 228.032 19.734C227.906 19.914 230.121 22.1468 236.621 28.377L245.372 36.7859L249.91 36.804C252.448 36.804 254.483 36.7319 254.537 36.6419C254.609 36.5519 251.872 33.8509 248.487 30.6458C245.084 27.4587 242.311 24.7757 242.311 24.7217C242.311 24.6497 242.797 24.2356 243.391 23.8034C246.416 21.5526 248.109 18.4015 248.289 14.6382C248.469 10.9289 247.389 8.0839 244.832 5.56302C243.211 3.96046 241.951 3.13217 240.114 2.50195C238.043 1.78169 236.891 1.69166 229.31 1.69166C223.314 1.69166 222.054 1.72767 222.054 1.94375Z" fill="white"/>
<path d="M257.31 1.87177C254.105 2.84411 253.709 7.18363 256.716 8.55211C258.769 9.48844 261.127 8.49809 261.83 6.39135C262.712 3.76243 260.011 1.06148 257.31 1.87177ZM259.867 3.06018C260.623 3.70841 260.947 4.39265 260.947 5.41901C260.947 6.58942 260.443 7.3817 259.399 7.83186C256.914 8.94825 254.717 6.31933 256.014 3.79844C256.662 2.55601 258.769 2.15987 259.867 3.06018Z" fill="white"/>
<path d="M256.878 3.7264C256.824 3.87045 256.806 4.69874 256.842 5.58105C256.896 7.16561 256.896 7.18361 257.346 7.18361C257.742 7.18361 257.796 7.09358 257.85 6.49938C257.904 5.90517 257.958 5.81514 258.3 5.86915C258.571 5.90517 258.769 6.12124 258.895 6.55339C259.057 7.03956 259.219 7.20162 259.579 7.23763C260.029 7.29165 260.047 7.25564 259.939 6.78748C259.885 6.51738 259.723 6.06722 259.597 5.79713C259.399 5.38298 259.399 5.27495 259.615 5.09488C259.993 4.78878 259.921 4.08653 259.471 3.78042C258.949 3.4203 257.022 3.38428 256.878 3.7264ZM258.877 4.66273C258.877 4.91482 258.733 5.04086 258.39 5.07688C257.958 5.1309 257.886 5.07688 257.886 4.66273C257.886 4.24859 257.958 4.19457 258.39 4.24859C258.733 4.2846 258.877 4.41064 258.877 4.66273Z" fill="white"/>
<path d="M54.1089 48.3461C53.6948 48.5442 53.1726 48.9943 52.9745 49.3184C51.336 51.9654 54.1449 54.8824 57.044 53.5679C58.1604 53.0637 58.6465 52.2535 58.6465 50.939C58.6465 50.0927 58.5565 49.7326 58.2144 49.2464C57.3501 48.04 55.5314 47.6439 54.1089 48.3461ZM56.8279 49.6966C57.188 50.0747 57.2961 50.3628 57.2961 50.975C57.2961 52.0734 56.7199 52.6496 55.6035 52.6496C54.9372 52.6496 54.7392 52.5596 54.343 52.0914C53.6948 51.3171 53.7128 50.4528 54.397 49.7506C55.1173 49.0483 56.1436 49.0123 56.8279 49.6966Z" fill="white"/>
<path d="M154.26 48.22C152.297 49.1023 151.865 51.6592 153.468 53.0817C155.016 54.5042 157.663 53.9821 158.437 52.1274C158.78 51.3171 158.654 49.9126 158.185 49.2644C157.411 48.184 155.484 47.6798 154.26 48.22ZM156.781 49.6785C157.123 50.0027 157.231 50.3088 157.231 50.939C157.231 52.0374 156.655 52.6496 155.629 52.6496C154.53 52.6496 153.9 52.0194 153.9 50.939C153.9 50.2367 153.99 50.0207 154.404 49.6605C155.106 49.0663 156.187 49.0663 156.781 49.6785Z" fill="white"/>
<path d="M209.809 48.3642C208.225 49.1745 207.721 51.3173 208.783 52.7218C209.647 53.8562 211.592 54.2163 213.105 53.532C213.573 53.316 213.591 53.2439 213.591 52.0735V50.8491H212.961H212.33V51.7494V52.6497H211.484C210.566 52.6317 210.17 52.4337 209.845 51.8034C209.431 51.0472 209.665 49.9848 210.332 49.4626C210.746 49.1385 212.006 49.1745 212.474 49.5166C212.871 49.7867 212.925 49.7867 213.321 49.4086C213.843 48.9044 213.771 48.7604 212.798 48.3102C211.808 47.8601 210.782 47.8781 209.809 48.3642Z" fill="white"/>
<path d="M40.9463 50.9751L41.0004 53.8201L42.1708 53.8741C44.1695 53.9822 45.2138 53.7661 45.826 53.1719C46.2582 52.7217 46.3302 52.5416 46.2402 52.0735C46.1862 51.7494 45.9701 51.3352 45.79 51.1191C45.4839 50.795 45.4659 50.723 45.7 50.4169C46.0601 49.9307 46.0241 49.1745 45.61 48.6703C45.2859 48.2742 45.1238 48.2381 43.0891 48.1841L40.8923 48.1121L40.9463 50.9751ZM44.4216 49.7687C44.4216 50.1828 44.3495 50.2188 43.3952 50.2729L42.3508 50.3269V49.7687V49.2105L43.3952 49.2645C44.3495 49.3185 44.4216 49.3545 44.4216 49.7687ZM44.5296 51.5693C44.7097 51.6773 44.8717 51.9294 44.8717 52.1275C44.8717 52.5597 44.2235 52.8297 43.1431 52.8297H42.3508V52.1095V51.3892H43.2691C43.7733 51.3892 44.3315 51.4793 44.5296 51.5693Z" fill="white"/>
<path d="M65.2188 49.9847C65.2188 52.2535 65.5609 53.1538 66.5333 53.604C67.8117 54.2162 69.4323 53.838 70.0805 52.7937C70.3866 52.2895 70.4407 51.8934 70.4407 50.1648V48.1481H69.8104H69.1802L69.1622 49.7146C69.1622 50.5969 69.0722 51.5873 68.9461 51.9294C68.7481 52.5056 68.658 52.5596 67.9738 52.6136C66.8574 52.7037 66.6593 52.3075 66.6593 50.0027V48.1481H65.9391H65.2188V49.9847Z" fill="white"/>
<path d="M77.3191 50.975L77.3731 53.82H78.0033H78.6335L78.7235 52.1814L78.8136 50.5608L80.074 52.1454C81.2984 53.6579 81.8386 54.072 82.4148 53.838C82.6309 53.7659 82.6849 53.2618 82.6849 50.9389V48.148H81.9647H81.2624L81.2084 49.7505L81.1544 51.3711L79.8399 49.7505C78.6515 48.292 78.4715 48.148 77.8953 48.148H77.265L77.3191 50.975Z" fill="white"/>
<path d="M89.5634 50.9748L89.6174 53.8198L91.346 53.8018C93.2547 53.8018 94.155 53.4777 94.8212 52.5774C95.3614 51.8571 95.3434 50.0745 94.8032 49.3002C94.155 48.3999 93.4167 48.1478 91.346 48.1478H89.5094L89.5634 50.9748ZM93.0026 49.4443C93.2187 49.5523 93.4888 49.7684 93.6148 49.9305C93.8489 50.2366 93.9209 51.353 93.7408 51.8391C93.5608 52.2893 92.6965 52.6494 91.7782 52.6494H90.9679V50.9388V49.2282H91.7962C92.2463 49.2282 92.7865 49.3182 93.0026 49.4443Z" fill="white"/>
<path d="M109.874 51.0288V53.9639L111.819 53.8738C113.926 53.7658 114.592 53.5677 114.898 52.8835C115.204 52.2173 115.132 51.8211 114.646 51.2449C114.25 50.7768 114.232 50.6867 114.466 50.4887C114.88 50.1465 114.808 48.9941 114.358 48.58C114.034 48.2919 113.638 48.2199 111.927 48.1838L109.874 48.1118V51.0288ZM113.368 49.5163C113.566 50.0385 113.134 50.3086 112.107 50.3086C111.153 50.3086 111.135 50.3086 111.135 49.7684C111.135 49.2282 111.135 49.2282 112.197 49.2282C113.008 49.2282 113.278 49.3002 113.368 49.5163ZM113.314 51.569C113.494 51.6771 113.656 51.9292 113.656 52.1272C113.656 52.5594 113.008 52.8295 111.927 52.8295H111.135V52.1092V51.389H112.053C112.557 51.389 113.116 51.479 113.314 51.569Z" fill="white"/>
<path d="M120.858 48.2379C120.858 48.2739 121.344 49.1202 121.939 50.0926C122.911 51.7131 123.019 51.9832 123.019 52.9016V53.9099H123.649H124.28V52.9016C124.28 51.9832 124.388 51.7131 125.36 50.0926C125.954 49.1202 126.44 48.2739 126.44 48.2379C126.44 48.1839 126.134 48.1479 125.774 48.1479C125.126 48.1479 125.054 48.2199 124.406 49.3363C123.631 50.6688 123.739 50.6868 122.767 48.9942C122.299 48.2199 122.209 48.1479 121.561 48.1479C121.182 48.1479 120.858 48.1839 120.858 48.2379Z" fill="white"/>
<path d="M140.665 51.0289V53.9099H141.295H141.908L141.962 52.1993L142.016 50.4707L143.42 52.1993C144.645 53.6938 144.897 53.9279 145.311 53.8739L145.797 53.8199L145.851 50.9749L145.905 48.1479H145.185H144.465L144.411 49.7144L144.357 51.281L143.096 49.7144C141.98 48.328 141.764 48.1479 141.259 48.1479H140.665V51.0289Z" fill="white"/>
<path d="M164.614 48.6881C164.614 49.2103 164.632 49.2283 165.514 49.2283H166.414V51.5872V53.928L167.099 53.874L167.765 53.8199L167.819 51.5331L167.873 49.2463L168.719 49.1923C169.493 49.1383 169.565 49.1023 169.619 48.6341L169.673 48.148H167.153H164.614V48.6881Z" fill="white"/>
<path d="M175.814 50.9749L175.868 53.8199L176.552 53.874L177.218 53.928V52.7576V51.5692H178.478H179.739V52.7576V53.928L180.423 53.874L181.089 53.8199L181.143 50.9749L181.197 48.148H180.459H179.739V49.2283V50.3087H178.478H177.218V49.2283V48.148H176.498H175.76L175.814 50.9749Z" fill="white"/>
<path d="M188.058 50.9748L188.112 53.8198H188.742H189.372L189.426 50.9748L189.48 48.1478H188.742H188.004L188.058 50.9748Z" fill="white"/>
<path d="M196.341 50.975L196.395 53.82H197.025H197.655L197.745 52.1814L197.835 50.5608L199.096 52.1454C200.32 53.6579 200.86 54.072 201.437 53.838C201.653 53.7659 201.707 53.2618 201.707 50.9389V48.148H200.986H200.284L200.23 49.7505L200.176 51.3711L198.862 49.7505C197.673 48.292 197.493 48.148 196.917 48.148H196.287L196.341 50.975Z" fill="white"/>
<path d="M216.112 52.4695C216.112 52.5595 216.22 52.6495 216.364 52.6495C216.544 52.6495 216.652 52.8836 216.706 53.3158L216.778 54L216.796 53.3158C216.814 52.8656 216.922 52.6495 217.102 52.6495C217.246 52.6495 217.372 52.5595 217.372 52.4695C217.372 52.3614 217.084 52.2894 216.742 52.2894C216.4 52.2894 216.112 52.3614 216.112 52.4695Z" fill="white"/>
<path d="M218.885 52.8298C218.633 53.2259 218.506 53.3159 218.326 53.1539C218.056 52.9378 218.02 53.1719 218.272 53.55C218.434 53.7841 218.506 53.7481 218.795 53.37L219.137 52.9378L219.227 53.46C219.281 53.8381 219.299 53.7481 219.335 53.1359C219.335 52.6677 219.317 52.2896 219.281 52.2896C219.227 52.2896 219.047 52.5237 218.885 52.8298Z" fill="white"/>
<path d="M217.552 53.1719C217.552 53.9642 217.894 54.2163 217.948 53.46C217.948 53.208 217.966 52.9199 217.984 52.7938C218.002 52.6858 217.894 52.5597 217.786 52.5057C217.624 52.4697 217.552 52.6678 217.552 53.1719Z" fill="white"/>
</svg>

<svg width="262" height="54" fill="none" xmlns="http://www.w3.org/2000/svg"><path d="M78.561 1.223c-.144.163-.18 5.078-.162 17.863l.055 17.628 3.187.054 3.205.036.036-10.444.054-10.443 11.11 10.803c6.122 5.943 11.236 10.804 11.38 10.804.126 0 .306-.126.36-.288.054-.162.108-6.986.108-15.161V7.184l-3.025-3.026c-1.657-1.656-3.115-3.007-3.241-3.007-.162 0-.216 2.323-.216 10.732 0 6.374-.073 10.696-.163 10.66-.09-.036-5.095-4.844-11.127-10.678C84.106 6.013 79.084 1.17 78.975 1.097c-.126-.072-.306-.018-.415.126zm43.234-.108c-.18.126-.216 3.818-.18 17.88l.054 17.719h6.302l.09-10.372.09-10.39 11.074 10.786c6.086 5.924 11.218 10.768 11.398 10.768.288.018.306-.828.306-15.27V6.95l-2.989-2.9c-1.657-1.602-3.079-2.88-3.205-2.845-.144.054-.216 3.007-.288 10.714l-.09 10.642-11.128-10.804C127.107 5.833 122.083.971 122.065.971c-.018 0-.144.072-.27.144zm56.846.145c-.433.522-18.331 35.256-18.241 35.4.054.072 1.819.144 3.908.144h3.817L173.527 26c2.971-5.942 5.438-10.804 5.492-10.804.054 0 2.521 4.844 5.492 10.768l5.402 10.75 3.673.054c2.034.018 3.745-.018 3.835-.108.162-.162-18.024-35.455-18.348-35.58-.108-.055-.306.035-.432.18zM23.696 4.014l-3.043 2.9-.09 10.389c-.09 10.084-.108 10.426-.468 11.218-.468 1.008-1.62 2.07-2.539 2.34-.432.127-1.963.18-4.303.145l-3.62-.054-.864-.54c-.594-.379-1.026-.847-1.422-1.531-.54-.972-.559-1.026-.613-3.907-.054-2.197-.144-2.935-.306-2.935-.126 0-1.62 1.314-3.33 2.917L0 27.89l.108 1.008c.36 3.691 2.971 6.662 6.68 7.635 1.53.396 12.137.396 13.65 0 3.042-.793 5.347-2.917 6.355-5.852.325-.937.343-1.747.343-15.198 0-10.371-.055-14.225-.199-14.279-.108-.036-1.566 1.225-3.24 2.81zm186.33.163l-3.098 3.007.036 14.765.054 14.765 3.296.054 3.277.036V18.978c0-14.153-.054-17.827-.216-17.809-.126 0-1.639 1.351-3.349 3.008zM41 1.908c-.054.126-.072 8.013-.054 17.52L41 36.714l11.2.054 11.218.036 1.333-2.683c.738-1.477 1.296-2.719 1.242-2.791-.072-.054-4.267-.108-9.363-.108h-9.237v-9.183l4.285-.036 4.268-.054 1.386-2.701c.756-1.495 1.333-2.755 1.279-2.845-.036-.072-2.575-.126-5.654-.126h-5.564V7.454l7.976-.036 7.96-.054 1.404-2.647c.774-1.459 1.368-2.737 1.296-2.845-.18-.288-24.92-.252-25.029.036zm181.054.036c0 .126 1.422 1.602 3.187 3.277l3.169 3.043 4.61.09c4.573.09 4.609.09 5.528.576 1.17.612 2.484 2.07 2.845 3.151.162.469.288 1.387.288 2.035 0 2.143-1.243 4.015-3.314 4.97-.882.414-1.062.432-5.527.432-3.476 0-4.664.054-4.808.216-.126.18 2.089 2.413 8.589 8.643l8.751 8.409 4.538.018c2.538 0 4.573-.072 4.627-.162.072-.09-2.665-2.791-6.05-5.996-3.403-3.187-6.176-5.87-6.176-5.924 0-.072.486-.486 1.08-.919 3.025-2.25 4.718-5.402 4.898-9.165.18-3.71-.9-6.554-3.457-9.075-1.621-1.603-2.881-2.43-4.718-3.061-2.071-.72-3.223-.81-10.804-.81-5.996 0-7.256.036-7.256.252zm35.256-.072c-3.205.972-3.601 5.312-.594 6.68 2.053.936 4.411-.054 5.114-2.16.882-2.63-1.819-5.33-4.52-4.52zm2.557 1.188c.756.648 1.08 1.333 1.08 2.359 0 1.17-.504 1.963-1.548 2.413-2.485 1.116-4.682-1.513-3.385-4.034.648-1.242 2.755-1.638 3.853-.738z" fill="#fff"/><path d="M256.878 3.726c-.054.144-.072.973-.036 1.855.054 1.585.054 1.603.504 1.603.396 0 .45-.09.504-.685.054-.594.108-.684.45-.63.271.036.469.252.595.684.162.487.324.649.684.685.45.054.468.018.36-.45a5.388 5.388 0 00-.342-.99c-.198-.415-.198-.523.018-.703.378-.306.306-1.008-.144-1.315-.522-.36-2.449-.396-2.593-.054zm1.999.937c0 .252-.144.378-.487.414-.432.054-.504 0-.504-.414s.072-.468.504-.414c.343.036.487.162.487.414zM54.109 48.346c-.414.198-.936.648-1.135.972-1.638 2.647 1.17 5.564 4.07 4.25 1.116-.504 1.603-1.314 1.603-2.629 0-.846-.09-1.206-.433-1.693-.864-1.206-2.683-1.602-4.105-.9zm2.719 1.35c.36.379.468.667.468 1.279 0 1.098-.576 1.675-1.693 1.675-.666 0-.864-.09-1.26-.559-.648-.774-.63-1.638.054-2.34.72-.703 1.747-.739 2.43-.054zm97.432-1.476c-1.963.882-2.395 3.44-.792 4.862 1.548 1.422 4.195.9 4.969-.955.343-.81.217-2.214-.252-2.863-.774-1.08-2.701-1.584-3.925-1.044zm2.521 1.459c.342.324.45.63.45 1.26 0 1.098-.576 1.71-1.602 1.71-1.099 0-1.729-.63-1.729-1.71 0-.702.09-.918.504-1.279.702-.594 1.783-.594 2.377.019zm53.028-1.315c-1.584.81-2.088 2.953-1.026 4.358.864 1.134 2.809 1.494 4.322.81.468-.216.486-.288.486-1.458v-1.225h-1.261v1.8h-.846c-.918-.017-1.314-.215-1.639-.846-.414-.756-.18-1.818.487-2.34.414-.325 1.674-.288 2.142.054.397.27.451.27.847-.108.522-.505.45-.649-.523-1.099-.99-.45-2.016-.432-2.989.054zM40.946 50.975L41 53.82l1.17.054c2 .108 3.044-.108 3.656-.702.432-.45.504-.63.414-1.098-.054-.325-.27-.739-.45-.955-.306-.324-.324-.396-.09-.702.36-.486.324-1.242-.09-1.747-.324-.396-.486-.432-2.52-.486l-2.198-.072.054 2.863zm3.476-1.206c0 .414-.072.45-1.027.504l-1.044.054V49.21l1.044.053c.954.054 1.027.09 1.027.505zm.108 1.8c.18.108.342.36.342.558 0 .433-.648.703-1.729.703h-.792v-1.44h.918c.504 0 1.063.09 1.26.18zm20.689-1.584c0 2.269.342 3.169 1.314 3.619 1.279.612 2.9.234 3.547-.81.307-.505.36-.9.36-2.63v-2.016h-1.26l-.018 1.567c0 .882-.09 1.872-.216 2.214-.198.577-.288.63-.972.685-1.117.09-1.315-.306-1.315-2.611v-1.855h-1.44v1.837zm12.101.99l.053 2.845h1.26l.09-1.639.09-1.62 1.261 1.584c1.224 1.513 1.765 1.927 2.34 1.693.217-.072.27-.576.27-2.9v-2.79h-1.422l-.054 1.602-.054 1.621-1.314-1.62c-1.189-1.459-1.368-1.603-1.945-1.603h-.63l.054 2.827zm12.243 0l.054 2.845 1.729-.018c1.909 0 2.809-.324 3.475-1.225.54-.72.522-2.502-.018-3.277-.648-.9-1.386-1.152-3.457-1.152h-1.837l.054 2.827zm3.44-1.53c.216.107.486.323.612.486.234.306.306 1.422.126 1.908-.18.45-1.044.81-1.963.81h-.81v-3.42h.828c.45 0 .99.09 1.207.215zm16.871 1.584v2.935l1.945-.09c2.107-.108 2.773-.306 3.079-.99.306-.667.234-1.063-.252-1.64-.396-.467-.414-.557-.18-.755.414-.342.342-1.495-.108-1.909-.324-.288-.72-.36-2.431-.396l-2.053-.072v2.917zm3.494-1.513c.198.523-.234.793-1.261.793-.954 0-.972 0-.972-.54s0-.54 1.062-.54c.811 0 1.081.071 1.171.287zm-.054 2.053c.18.108.342.36.342.558 0 .432-.648.703-1.729.703h-.792v-1.441h.918c.504 0 1.063.09 1.261.18zm7.544-3.331c0 .036.486.882 1.081 1.855.972 1.62 1.08 1.89 1.08 2.809v1.008h1.261v-1.008c0-.919.108-1.189 1.08-2.81.594-.972 1.08-1.818 1.08-1.854 0-.054-.306-.09-.666-.09-.648 0-.72.072-1.368 1.188-.775 1.333-.667 1.35-1.639-.342-.468-.774-.558-.846-1.206-.846-.379 0-.703.036-.703.09zm19.807 2.791v2.88h1.243l.054-1.71.054-1.728 1.404 1.728c1.225 1.495 1.477 1.729 1.891 1.675l.486-.054.054-2.845.054-2.827h-1.44l-.054 1.566-.054 1.567-1.261-1.567c-1.116-1.386-1.332-1.566-1.837-1.566h-.594v2.88zm23.949-2.341c0 .522.018.54.9.54h.9v4.7l.685-.054.666-.054.054-2.287.054-2.287.846-.054c.774-.054.846-.09.9-.558l.054-.486h-5.059v.54zm11.2 2.287l.054 2.845.684.054.666.054v-2.359h2.521v2.359l.684-.054.666-.054.054-2.845.054-2.827h-1.458v2.16h-2.521v-2.16h-1.458l.054 2.827zm12.244 0l.054 2.845h1.26l.054-2.845.054-2.827h-1.476l.054 2.827zm8.283 0l.054 2.845h1.26l.09-1.639.09-1.62 1.261 1.584c1.224 1.513 1.764 1.927 2.341 1.693.216-.072.27-.576.27-2.9v-2.79h-1.423l-.054 1.602-.054 1.621-1.314-1.62c-1.189-1.459-1.369-1.603-1.945-1.603h-.63l.054 2.827zm19.771 1.495c0 .09.108.18.252.18.18 0 .288.234.342.666l.072.684.018-.684c.018-.45.126-.666.306-.666.144 0 .27-.09.27-.18 0-.109-.288-.18-.63-.18s-.63.071-.63.18zm2.773.36c-.252.396-.379.486-.559.324-.27-.216-.306.018-.054.396.162.234.234.198.523-.18l.342-.432.09.522c.054.378.072.288.108-.324 0-.468-.018-.846-.054-.846-.054 0-.234.234-.396.54zm-1.333.342c0 .792.342 1.044.396.288 0-.252.018-.54.036-.666.018-.108-.09-.234-.198-.288-.162-.036-.234.162-.234.666z" fill="#fff"/></svg>
